X:1
T:God Save the King. ET.19
T:God Save the King. ET.19
%%score 1 2
L:1/8
Q:1/4=120
M:3/4
K:D
V:1 treble 
V:2 treble 
V:1
 d2 d2 e2 | c3 d e2 | f2 f2 g2 | f3 e d2 | e2 d2 c2 | d6 :: a2 a2 a2 | a3 g f2 | g2 g2 g2 | %9
 g3 f e2 | f2 (gf)(ed) | f3 g a2 | (3bag f2"^tr" e2 | d6 :| %14
V:2
 A,,2 A,,2 B,,2 | G,,3 A,, B,,2 | F,2 F,2 G,2 | F,3 C, D,2 | B,,2 A,,2 G,,2"^bar line added" | %5
 A,,6 :: A,2 A,2 A,2 | A,C,A,G, F,2 | G,2 G,2 G,2 | G,C,G,F, E,2 | F,2 (G,F,)(C,A,,) | %11
 F,C,F,G, A,2 | (3B,A,G, F,2 C,2 | A,,6 :| %14

